X: 6
T: The Irish Lottery
R: reel
Z: 2014 John Chambers <jc:trillian.mit.edu>
S: The Gentleman's Magazine v.23, November 1753, p.533
M: C|
L: 1/16
K: D
% - - - - - - - - - - - - - - - - - - - - - - - - - - - - -
|:\
f2 |\
e2d2c2d2 edcB A2B2 | A2G2F2G2 AGFE D2f2 |\
e2d2c2d2 e4a4 | gfed c2B2 A6 :|
|: A2 |\
(Bc)d2d2c2 d(ef2)f2e2 | fa(g2g2f2) edcB A2A2 |\
(Bcd2) (cde2) (def2) (efg2) | (fga2) A2c2 d6 :|
% - - - - - - - - - - Dance description - - - - - - - - - -
%%begintext align
%%   The 1st coup. lead down one coup. cast up and cast off, .| lead thro' the 3d coup. cast up and
%% foot it :| . 1st coup. turn contrary corners with their right hands and partners left hands .|. the
%% other corners the same :| set contrary corners and turn :| , lead thro' the 3d coup. and cast
%% up, lead thro' the 2d and cast off and turn.
%%endtext

%%sep 1 1 500
%%sep 1 1 500
